X: 12
T:Hag's Purse
R:Jig
S:Matt Cranitch Fiddle book
Z:Added by Alf 
M:6/8
L:1/8
K:G
B|:ADD FED|A2d cAF|GEE EDE|c2d cAG|
ADD FED|A2d cAF|GFG cGE|EDD D2z:|
|:d2e fdd|ged cAA|G2E EDE|c2d cAG|
Add fdd|ged cAA|GFG cAE|EDD D2z:|
